src/lib/packages/icons/src/assets/filled/calendar-times.svg

<svg width="24" height="24" viewBox="0 0 24 24" fill="none" xmlns="http://www.w3.org/2000/svg">
<path d="M20.7 9.75H3.30005C3.13405 9.75 3 9.88405 3 10.05V18C3 20 4 21 6 21H18C20 21 21 20 21 18V10.05C21 9.88405 20.866 9.75 20.7 9.75ZM14.53 16.47C14.823 16.763 14.823 17.238 14.53 17.531C14.384 17.677 14.192 17.751 14 17.751C13.808 17.751 13.616 17.678 13.47 17.531L12 16.061L10.53 17.531C10.384 17.677 10.192 17.751 10 17.751C9.808 17.751 9.61597 17.678 9.46997 17.531C9.17697 17.238 9.17697 16.763 9.46997 16.47L10.9399 15L9.46997 13.53C9.17697 13.237 9.17697 12.762 9.46997 12.469C9.76297 12.176 10.238 12.176 10.531 12.469L12.001 13.939L13.4709 12.469C13.7639 12.176 14.239 12.176 14.532 12.469C14.825 12.762 14.825 13.237 14.532 13.53L13.062 15L14.53 16.47ZM21 7.5V7.94995C21 8.11595 20.866 8.25 20.7 8.25H3.30005C3.13405 8.25 3 8.11595 3 7.94995V7.5C3 5.5 4 4.5 6 4.5H7.25V3C7.25 2.59 7.59 2.25 8 2.25C8.41 2.25 8.75 2.59 8.75 3V4.5H15.25V3C15.25 2.59 15.59 2.25 16 2.25C16.41 2.25 16.75 2.59 16.75 3V4.5H18C20 4.5 21 5.5 21 7.5Z" fill="currentColor"/>
</svg>

<svg xmlns="http://www.w3.org/2000/svg" width="24" height="24" fill="none"><path fill="currentColor" d="M20.7 9.75H3.3a.3.3 0 0 0-.3.3V18c0 2 1 3 3 3h12c2 0 3-1 3-3v-7.95a.3.3 0 0 0-.3-.3Zm-6.17 6.72a.75.75 0 0 1-1.06 1.061L12 16.061l-1.47 1.47a.748.748 0 0 1-1.06 0 .75.75 0 0 1 0-1.061L10.94 15l-1.47-1.47a.75.75 0 1 1 1.061-1.061l1.47 1.47 1.47-1.47a.75.75 0 0 1 1.061 1.061L13.062 15l1.468 1.47ZM21 7.5v.45a.3.3 0 0 1-.3.3H3.3a.3.3 0 0 1-.3-.3V7.5c0-2 1-3 3-3h1.25V3c0-.41.34-.75.75-.75s.75.34.75.75v1.5h6.5V3c0-.41.34-.75.75-.75s.75.34.75.75v1.5H18c2 0 3 1 3 3Z"/></svg>
